Suru++-Ubuntu/apps/scalable/aclock.svg

<svg width="256" height="256" version="1.1" viewBox="0 0 67.73 67.73" xmlns="http://www.w3.org/2000/svg" xmlns:xlink="http://www.w3.org/1999/xlink">
 <defs>
  <linearGradient id="linearGradient1108" x1="296" x2="296" y1="-212" y2="202.4" gradientTransform="translate(-2e-6,-2e-6)" gradientUnits="userSpaceOnUse">
   <stop style="stop-color:#ffffff" offset="0"/>
   <stop style="stop-color:#ffffff;stop-opacity:.09803922" offset=".135"/>
   <stop style="stop-color:#000000;stop-opacity:0" offset="1"/>
  </linearGradient>
  <clipPath id="clipPath1082-3-92">
   <path d="M 361.9375,-212 C 507.2348,-212 528,-191.28677 528,-46.125 V 70.125 C 528,215.28618 507.2348,236 361.9375,236 H 214.0625 C 68.7652,236 48,215.28618 48,70.125 V -46.125 C 48,-191.28677 68.7652,-212 214.0625,-212 Z" style="fill:#8c59d9"/>
  </clipPath>
  <filter id="filter4278" x="-.01" y="-.01" width="1.024" height="1.024" style="color-interpolation-filters:sRGB">
   <feGaussianBlur stdDeviation="1.384"/>
  </filter>
  <linearGradient id="linearGradient4290" x1="226.84" x2="406.448" y1="429.516" y2="146.703" gradientUnits="userSpaceOnUse">
   <stop style="stop-color:#000000;stop-opacity:0" offset="0"/>
   <stop style="stop-color:#000000" offset=".496"/>
   <stop style="stop-color:#000000;stop-opacity:0" offset="1"/>
  </linearGradient>
  <linearGradient id="linearGradient938" x1="32" x2="272" y1="156" y2="156" gradientTransform="matrix(.09224549 .25344241 -.25344241 .09224549 59.382368 209.72135)" gradientUnits="userSpaceOnUse">
   <stop style="stop-color:#666666" offset="0"/>
   <stop style="stop-color:#666666" offset="1"/>
  </linearGradient>
  <filter id="filter920" x="-.02" y="-.03" width="1.046" height="1.05" style="color-interpolation-filters:sRGB">
   <feGaussianBlur stdDeviation="2.32"/>
  </filter>
  <filter id="filter4569" x="-.01" y="-.01" width="1.023" height="1.025" style="color-interpolation-filters:sRGB">
   <feGaussianBlur stdDeviation="1.16"/>
  </filter>
 </defs>
 <g transform="translate(0,-229.26666)">
  <path transform="matrix(.26970778 0 0 .26970778 -7.1289177 220.56049)" d="m188.96876 43.999995c72.64865 0 83.03125 10.356615 83.03125 82.937505v58.125c0 72.58059-10.3826 82.9375-83.03125 82.9375h-73.9375c-72.648654 0-83.031254-10.35691-83.031254-82.9375v-58.125c0-72.58089 10.3826-82.937505 83.031254-82.937505z" style="filter:url(#filter4569);opacity:.1"/>
  <path transform="matrix(.26970778 0 0 .26970778 -7.1289177 220.56049)" d="m188.96876 45.999995c72.64865 0 83.03125 10.356615 83.03125 82.937505v58.125c0 72.58059-10.3826 82.9375-83.03125 82.9375h-73.9375c-72.648654 0-83.031254-10.35691-83.031254-82.9375v-58.125c0-72.58089 10.3826-82.937505 83.031254-82.937505z" style="filter:url(#filter920);opacity:.2"/>
  <path d="m43.837442 232.42763c19.593904 0 22.394169 2.79326 22.394172 22.36889v15.67677c0 19.57555-2.800271 22.36889-22.394172 22.36889h-19.941525c-19.593904 0-22.394173-2.79334-22.394173-22.36889l5e-7 -15.67677c8e-7 -19.57563 2.8002679-22.36889 22.394174-22.36889z" style="fill:url(#linearGradient938)"/>
  <path d="m2.1148954 243.82542c-0.4622048 2.89126-0.6131636 6.48639-0.6131639 10.9711v15.67677c0 19.57554 2.8002707 22.36888 22.394174 22.36888h19.94152c14.587924 0 19.86448-1.55409 21.60981-10.42378z" style="fill:#ffffff;opacity:.05"/>
  <g transform="matrix(.26970778 0 0 .26970778 -7.1289177 220.56049)" style="enable-background:new">
   <path transform="matrix(.5 0 0 .5 24 28)" d="m418.56445 154.90625-150.71093 87.01367a20 20 0 0 0-5.85352-2.99414v-20.92578h-12v20.94531a20 20 0 0 0-5.85352 2.97461l-91.92382-53.07422-8 13.85742 91.91211 53.06641a20 20 0 0 0-0.13477 2.23047 20 20 0 0 0 14 19.07422v148.92578h12v-148.94531a20 20 0 0 0 14-19.05469 20 20 0 0 0-0.14844-2.22266l150.71289-87.01562z" style="filter:url(#filter4278);opacity:.1"/>
   <path transform="matrix(.5 0 0 .5 24 28)" d="m418.56445 154.90625-150.71093 87.01367a20 20 0 0 0-5.85352-2.99414v-20.92578h-12v20.94531a20 20 0 0 0-5.85352 2.97461l-91.92382-53.07422-8 13.85742 91.91211 53.06641a20 20 0 0 0-0.13477 2.23047 20 20 0 0 0 14 19.07422v148.92578h12v-148.94531a20 20 0 0 0 14-19.05469 20 20 0 0 0-0.14844-2.22266l150.71289-87.01562z" style="fill:url(#linearGradient4290);filter:url(#filter4300);opacity:.4"/>
   <circle cx="152" cy="156.318" r="3.146" style="fill:#cccccc"/>
   <path d="M 98.111225,124.8873 152,156 235.28265,107.91674" style="fill:none;stroke-width:8;stroke:#f1f0e9"/>
   <circle cx="152" cy="156" r="10" style="fill:#f22c42"/>
   <path d="m152 136v104" style="fill:none;stroke-width:6;stroke:#f22c42"/>
  </g>
  <path transform="matrix(.13485389 0 0 .13485389 -4.9712557 261.01666)" d="M 361.9375,-212 C 507.2348,-212 528,-191.28677 528,-46.125 V 70.125 C 528,215.28618 507.2348,236 361.9375,236 H 214.0625 C 68.7652,236 48,215.28618 48,70.125 V -46.125 C 48,-191.28677 68.7652,-212 214.0625,-212 Z" clip-path="url(#clipPath1082-3-92)" style="fill:none;opacity:.4;stroke-linecap:round;stroke-linejoin:round;stroke-width:8;stroke:url(#linearGradient1108)"/>
 </g>
</svg>

<svg xmlns="http://www.w3.org/2000/svg" xmlns:xlink="http://www.w3.org/1999/xlink" width="256" height="256" version="1.1" viewBox="0 0 67.73 67.73">
 <defs>
  <linearGradient id="linearGradient1108" x1="296" x2="296" y1="-212" y2="202.4" gradientTransform="translate(-2e-6,-2e-6)" gradientUnits="userSpaceOnUse" xlink:href="#linearGradient1013"/>
  <linearGradient id="linearGradient1013">
   <stop offset="0" style="stop-color:#ffffff"/>
   <stop style="stop-color:#ffffff;stop-opacity:0.09803922" offset=".135"/>
   <stop style="stop-color:#000000;stop-opacity:0" offset="1"/>
  </linearGradient>
  <clipPath id="clipPath1082-3-92" clipPathUnits="userSpaceOnUse">
   <path d="M 361.9375,-212 C 507.2348,-212 528,-191.28677 528,-46.125 V 70.125 C 528,215.28618 507.2348,236 361.9375,236 H 214.0625 C 68.7652,236 48,215.28618 48,70.125 V -46.125 C 48,-191.28677 68.7652,-212 214.0625,-212 Z" style="fill:#8c59d9"/>
  </clipPath>
  <filter style="color-interpolation-filters:sRGB" id="filter4278" width="1.024" height="1.024" x="-.01" y="-.01">
   <feGaussianBlur stdDeviation="1.384"/>
  </filter>
  <linearGradient id="linearGradient4290" x1="226.84" x2="406.448" y1="429.516" y2="146.703" gradientUnits="userSpaceOnUse" xlink:href="#linearGradient4292"/>
  <linearGradient id="linearGradient4292">
   <stop offset="0" style="stop-color:#000000;stop-opacity:0"/>
   <stop style="stop-color:#000000" offset=".496"/>
   <stop offset="1" style="stop-color:#000000;stop-opacity:0"/>
  </linearGradient>
  <linearGradient id="linearGradient938" x1="32" x2="272" y1="156" y2="156" gradientTransform="matrix(0.09224549,0.25344241,-0.25344241,0.09224549,59.382368,209.72135)" gradientUnits="userSpaceOnUse" xlink:href="#linearGradient4239"/>
  <linearGradient id="linearGradient4239">
   <stop offset="0" style="stop-color:#666666"/>
   <stop offset="1" style="stop-color:#666666"/>
  </linearGradient>
  <filter style="color-interpolation-filters:sRGB" id="filter920" width="1.046" height="1.05" x="-.02" y="-.03">
   <feGaussianBlur stdDeviation="2.32"/>
  </filter>
  <filter style="color-interpolation-filters:sRGB" id="filter4569" width="1.023" height="1.025" x="-.01" y="-.01">
   <feGaussianBlur stdDeviation="1.16"/>
  </filter>
 </defs>
 <g transform="translate(0,-229.26666)">
  <path d="m 188.96876,43.999995 c 72.64865,0 83.03125,10.356615 83.03125,82.937505 v 58.125 c 0,72.58059 -10.3826,82.9375 -83.03125,82.9375 h -73.9375 C 42.382606,268 32.000006,257.64309 32.000006,185.0625 v -58.125 c 0,-72.58089 10.3826,-82.937505 83.031254,-82.937505 z" transform="matrix(0.26970778,0,0,0.26970778,-7.1289177,220.56049)" style="opacity:0.1;filter:url(#filter4569)"/>
  <path style="opacity:0.2;filter:url(#filter920)" d="m 188.96876,45.999995 c 72.64865,0 83.03125,10.356615 83.03125,82.937505 v 58.125 c 0,72.58059 -10.3826,82.9375 -83.03125,82.9375 h -73.9375 C 42.382606,270 32.000006,259.64309 32.000006,187.0625 v -58.125 c 0,-72.58089 10.3826,-82.937505 83.031254,-82.937505 z" transform="matrix(0.26970778,0,0,0.26970778,-7.1289177,220.56049)"/>
  <path style="fill:url(#linearGradient938)" d="m 43.837442,232.42763 c 19.593904,0 22.394169,2.79326 22.394172,22.36889 v 15.67677 c 0,19.57555 -2.800271,22.36889 -22.394172,22.36889 H 23.895917 c -19.5939042,0 -22.3941728,-2.79334 -22.3941728,-22.36889 l 5e-7,-15.67677 c 8e-7,-19.57563 2.8002679,-22.36889 22.3941743,-22.36889 z"/>
  <path style="opacity:0.05;fill:#ffffff" d="m 2.1148954,243.82542 c -0.4622048,2.89126 -0.6131636,6.48639 -0.6131639,10.9711 v 15.67677 c 0,19.57554 2.8002707,22.36888 22.3941745,22.36888 h 19.94152 c 14.587924,0 19.86448,-1.55409 21.60981,-10.42378 z"/>
  <g style="enable-background:new" transform="matrix(0.26970778,0,0,0.26970778,-7.1289177,220.56049)">
   <path d="M 418.56445,154.90625 267.85352,241.91992 A 20,20 0 0 0 262,238.92578 V 218 h -12 v 20.94531 a 20,20 0 0 0 -5.85352,2.97461 l -91.92382,-53.07422 -8,13.85742 91.91211,53.06641 A 20,20 0 0 0 236,258 20,20 0 0 0 250,277.07422 V 426 h 12 V 277.05469 A 20,20 0 0 0 276,258 a 20,20 0 0 0 -0.14844,-2.22266 l 150.71289,-87.01562 z" transform="matrix(0.5,0,0,0.5,24,28)" style="opacity:0.1;filter:url(#filter4278)"/>
   <path style="opacity:0.4;fill:url(#linearGradient4290);filter:url(#filter4300)" d="M 418.56445,154.90625 267.85352,241.91992 A 20,20 0 0 0 262,238.92578 V 218 h -12 v 20.94531 a 20,20 0 0 0 -5.85352,2.97461 l -91.92382,-53.07422 -8,13.85742 91.91211,53.06641 A 20,20 0 0 0 236,258 20,20 0 0 0 250,277.07422 V 426 h 12 V 277.05469 A 20,20 0 0 0 276,258 a 20,20 0 0 0 -0.14844,-2.22266 l 150.71289,-87.01562 z" transform="matrix(0.5,0,0,0.5,24,28)"/>
   <circle style="fill:#cccccc" cx="152" cy="156.318" r="3.146"/>
   <path d="M 98.111225,124.8873 152,156 235.28265,107.91674" style="fill:none;stroke:#f1f0e9;stroke-width:8"/>
   <circle cx="152" cy="156" r="10" style="fill:#f22c42"/>
   <path d="M 152,136 V 240" style="fill:none;stroke:#f22c42;stroke-width:6"/>
  </g>
  <path d="M 361.9375,-212 C 507.2348,-212 528,-191.28677 528,-46.125 V 70.125 C 528,215.28618 507.2348,236 361.9375,236 H 214.0625 C 68.7652,236 48,215.28618 48,70.125 V -46.125 C 48,-191.28677 68.7652,-212 214.0625,-212 Z" clip-path="url(#clipPath1082-3-92)" transform="matrix(0.13485389,0,0,0.13485389,-4.9712557,261.01666)" style="opacity:0.4;fill:none;stroke:url(#linearGradient1108);stroke-width:8;stroke-linecap:round;stroke-linejoin:round"/>
 </g>
</svg>
